usr/share/icons/biglinux-icons-material/symbolic/apps/preferences-desktop-keyboard-shortcuts-symbolic.svg

<svg width="16" height="16" version="1.1" viewBox="0 0 16 16" xmlns="http://www.w3.org/2000/svg">
 <path d="m1 2c-0.554 0-1 0.446-1 1v7c0 0.554 0.446 1 1 1h9.3379a3.5 3.5 0 0 1-0.30078-1h-9.0371v-7h13v3.0352a3.5 3.5 0 0 1 1 0.30273v-3.3379c0-0.554-0.446-1-1-1h-13zm1 2v1h1v-1h-1zm2 0v1h1v-1h-1zm2 0v1h1v-1h-1zm2 0v1h1v-1h-1zm2 0v1h1v-1h-1zm2 0v1h1v-1h-1zm-10 2v1h2v-1h-2zm3 0v1h1v-1h-1zm2 0v1h1v-1h-1zm2 0v1h1v-1h-1zm2 0v1h0.050781a3.5 3.5 0 0 1 1.9492-0.96289v-0.037109h-2zm-9 2v1h2v-1h-2zm3 0v1h5v-1h-5z" fill="#363636" style="paint-order:stroke fill markers"/>
 <path d="m13.5 7a2.5 2.5 0 0 0-2.5 2.5 2.5 2.5 0 0 0 2.5 2.5 2.5 2.5 0 0 0 2.5-2.5 2.5 2.5 0 0 0-2.5-2.5zm0 1a1.5 1.5 0 0 1 1.5 1.5 1.5 1.5 0 0 1-1.5 1.5 1.5 1.5 0 0 1-1.5-1.5 1.5 1.5 0 0 1 1.5-1.5z" fill="#363636" stroke-linecap="round" stroke-linejoin="round" stroke-width="1.25" style="paint-order:stroke fill markers"/>
 <circle cx="13.5" cy="9.5" r=".5" fill="#363636" stroke-linecap="round" stroke-linejoin="round" stroke-width="1.5" style="paint-order:stroke fill markers"/>
</svg>

<svg xmlns="http://www.w3.org/2000/svg" width="16" height="16"><path fill="#dedede" d="M1 2c-.554 0-1 .446-1 1v7c0 .554.446 1 1 1h9.338a3.5 3.5 0 0 1-.3-1H1V3h13v3.035a3.5 3.5 0 0 1 1 .303V3c0-.554-.446-1-1-1H1zm1 2v1h1V4H2zm2 0v1h1V4H4zm2 0v1h1V4H6zm2 0v1h1V4H8zm2 0v1h1V4h-1zm2 0v1h1V4h-1zM2 6v1h2V6H2zm3 0v1h1V6H5zm2 0v1h1V6H7zm2 0v1h1V6H9zm2 0v1h.05A3.5 3.5 0 0 1 13 6.037V6h-2zM2 8v1h2V8H2zm3 0v1h5V8H5z" style="paint-order:stroke fill markers"/><path fill="#dedede" d="M13.5 7A2.5 2.5 0 0 0 11 9.5a2.5 2.5 0 0 0 2.5 2.5A2.5 2.5 0 0 0 16 9.5 2.5 2.5 0 0 0 13.5 7zm0 1A1.5 1.5 0 0 1 15 9.5a1.5 1.5 0 0 1-1.5 1.5A1.5 1.5 0 0 1 12 9.5 1.5 1.5 0 0 1 13.5 8z" style="paint-order:stroke fill markers"/><circle cx="13.5" cy="9.5" r=".5" fill="#dedede" style="paint-order:stroke fill markers"/></svg>
